X: 24842
T: Maggie's Mushy Peas
R: jig
M: 6/8
K: Dmajor
|:dcd ABG|F/F/FD DFA|dAd f/g/af|gec ABc|
dcd ABG|F/F/Fd dcd|f/g/af gfe|dfe dA/B/c:|
|:f/g/af ggd|f/g/af ggd|f/g/af ged|cAA ABc|
dzd efg|f/g/af ggg|azb gec|dfe dag:|

